svg/polo.svg

<?xml version="1.0" encoding="UTF-8"?><!DOCTYPE svg PUBLIC "-//W3C//DTD SVG 1.1//EN" "http://www.w3.org/Graphics/SVG/1.1/DTD/svg11.dtd"><svg xmlns="http://www.w3.org/2000/svg" xmlns:xlink="http://www.w3.org/1999/xlink" version="1.1" id="mdi-polo" width="24" height="24" viewBox="0 0 24 24"><path d="M22 9.5C22 10.88 20.88 12 19.5 12S17 10.88 17 9.5 18.12 7 19.5 7 22 8.12 22 9.5M11 17V3H8V17H2L6 21H13V17H11M16 17H14V21H16V17Z" /></svg>

<svg xmlns="http://www.w3.org/2000/svg" viewBox="0 0 24 24"><path d="M22 9.5a2.5 2.5 0 0 1-5 0 2.5 2.5 0 0 1 5 0M11 17V3H8v14H2l4 4h7v-4zm5 0h-2v4h2z"/></svg>
